!!!SOCIAL_FUNCTION:	war songs
!!!PDT:	1922
!!!OTL: No_75_War_Song_(g).krn
!!!REG: Southwest
!!!LANG: Non-Tone
!!!LING_GROUP: Uto-Aztecan
**kern	**kern
*staff2	*staff1
*clefF4	*clefF4
*k[f#c#g#d#a#]	*k[f#c#g#d#a#]
*M2/4	*M2/4
8r	8f#\
=1	=1
4GG#/	12f#\L
.	12B\
.	12d#\J
4GG#/	[12d#\L
.	12d#\]
.	12f#\J
=2	=2
4GG#/	12f#\L
.	12B\
.	12d#\J
4GG#/	[12d#\L
.	12d#\]
.	12d#\J
=3	=3
4GG#/	12d#\L
.	12B\
.	12d#\J
4GG#/	4d#;\
=4	=4
2r	16B\LK
.	8.B\J
.	16B\LK
.	[8.B\J
=5	=5
2r	4B\]
.	[12B\L
.	12B\]
.	12f#\J
=6	=6
2r	12f#\L
.	12B\
.	12d#\J
.	[12d#\L
.	12d#\]
.	12f#\J
=7	=7
2r	12f#\L
.	12B\
.	12d#\J
.	[12d#\L
.	12d#\]
.	12d#\J
=8	=8
2r	12d#\L
.	12B\
.	12d#\J
.	4d#;\
=9	=9
2r	16B\LK
.	8.B\J
.	16B\LK
.	[8.B\J
=10	=10
2r	4B\]
.	[12B\L
.	12B\]
.	12d#\J
=11||	=11||
*M3/4	*M3/4
2.r	12d#\L
.	12B\
.	12d#\J
.	[12d#\L
.	12d#\]
.	12d#\J
.	48D#\LLK
.	16D#\J
.	12D#\
.	12D#\J
=12||	=12||
*M2/4	*M2/4
2r	12D#\L
.	12BB\
.	12D#\J
.	12D#\L
.	12D#\
.	12D#\J
=13	=13
2r	12D#\L
.	12BB\
.	12D#\J
.	12D#\L
.	12D#\
.	12D#\J
=14	=14
2r	12D#\L
.	12BB\
.	[12D#\J
.	4D#\]
=15	=15
2r	4BB/
.	8BB/L
.	8BB/J
=16	=16
2r	2BB/
==	==
*-	*-
